speaky-school/img/figures2.svg

<svg width="507" height="346" fill="none" xmlns="http://www.w3.org/2000/svg"><path fill-rule="evenodd" clip-rule="evenodd" d="M251 276a59.24 59.24 0 0 1-35 35 59.24 59.24 0 0 1 35 35 59.24 59.24 0 0 1 35-35 59.24 59.24 0 0 1-35-35zm-105 35a59.24 59.24 0 0 1 35 35 59.24 59.24 0 0 1 35-35 59.24 59.24 0 0 1-35-35 59.24 59.24 0 0 1-35 35zm0 0a59.24 59.24 0 0 1-35-35 59.24 59.24 0 0 1-35 35 59.24 59.24 0 0 1 35 35 59.24 59.24 0 0 1 35-35z" fill="#FE7167"/><rect width="200" height="200" rx="50" transform="matrix(-1 0 0 1 200 69)" fill="#FDE9D4"/><path fill-rule="evenodd" clip-rule="evenodd" d="M312 189h190a2 2 0 1 1 0 4H312a2 2 0 1 1 0-4zm190-3a5 5 0 0 1 0 10H312a5 5 0 0 1 0-10h190zm-190 43h190a2 2 0 1 1 0 4H312a2 2 0 1 1 0-4zm190-3a5 5 0 0 1 0 10H312a5 5 0 0 1 0-10h190zm0-17H312a2 2 0 1 0 0 4h190a2 2 0 1 0 0-4zm5 2a5 5 0 0 0-5-5H312a5 5 0 0 0 0 10h190a5 5 0 0 0 5-5z" fill="#FFECA0"/><path fill-rule="evenodd" clip-rule="evenodd" d="M412 60c-16.569 0-30-13.431-30-30 0-16.569 13.431-30 30-30 16.569 0 30 13.431 30 30 0 16.569-13.431 30-30 30zm-62 0c-16.569 0-30-13.431-30-30 0-16.569 13.431-30 30-30 16.569 0 30 13.431 30 30 0 16.569-13.431 30-30 30zm-30 32c0 16.569 13.431 30 30 30 16.569 0 30-13.431 30-30 0-16.569-13.431-30-30-30-16.569 0-30 13.431-30 30zm92 30c-16.569 0-30-13.431-30-30 0-16.569 13.431-30 30-30 16.569 0 30 13.431 30 30 0 16.569-13.431 30-30 30zM258 30c0 16.569 13.431 30 30 30 16.569 0 30-13.431 30-30 0-16.569-13.431-30-30-30-16.569 0-30 13.431-30 30zm-32 30c-16.569 0-30-13.431-30-30 0-16.569 13.431-30 30-30 16.569 0 30 13.431 30 30 0 16.569-13.431 30-30 30zm32 32c0 16.569 13.431 30 30 30 16.569 0 30-13.431 30-30 0-16.569-13.431-30-30-30-16.569 0-30 13.431-30 30zm-32 30c-16.569 0-30-13.431-30-30 0-16.569 13.431-30 30-30 16.569 0 30 13.431 30 30 0 16.569-13.431 30-30 30z" fill="#236967"/></svg>

<svg width="507" height="346" viewBox="0 0 507 346" fill="none" xmlns="http://www.w3.org/2000/svg">
<path fill-rule="evenodd" clip-rule="evenodd" d="M251 276C245 292.215 232.215 305 216 311C232.215 317 245 329.785 251 346C257 329.785 269.785 317 286 311C269.785 305 257 292.215 251 276ZM146 311C162.215 317 175 329.785 181 346C187 329.785 199.785 317 216 311C199.785 305 187 292.215 181 276C175 292.215 162.215 305 146 311ZM146 311C129.785 305 117 292.215 111 276C105 292.215 92.2152 305 76 311C92.2152 317 105 329.785 111 346C117 329.785 129.785 317 146 311Z" fill="#FE7167"/>
<rect width="200" height="200" rx="50" transform="matrix(-1 0 0 1 200 69)" fill="#FDE9D4"/>
<path fill-rule="evenodd" clip-rule="evenodd" d="M312 189H502C503.105 189 504 189.895 504 191C504 192.105 503.105 193 502 193H312C310.895 193 310 192.105 310 191C310 189.895 310.895 189 312 189ZM502 186C504.761 186 507 188.239 507 191C507 193.761 504.761 196 502 196H312C309.239 196 307 193.761 307 191C307 188.239 309.239 186 312 186H502ZM312 229H502C503.105 229 504 229.895 504 231C504 232.105 503.105 233 502 233H312C310.895 233 310 232.105 310 231C310 229.895 310.895 229 312 229ZM502 226C504.761 226 507 228.239 507 231C507 233.761 504.761 236 502 236H312C309.239 236 307 233.761 307 231C307 228.239 309.239 226 312 226H502ZM502 209H312C310.895 209 310 209.895 310 211C310 212.105 310.895 213 312 213H502C503.105 213 504 212.105 504 211C504 209.895 503.105 209 502 209ZM507 211C507 208.239 504.761 206 502 206H312C309.239 206 307 208.239 307 211C307 213.761 309.239 216 312 216H502C504.761 216 507 213.761 507 211Z" fill="#FFECA0"/>
<path fill-rule="evenodd" clip-rule="evenodd" d="M412 60C395.431 60 382 46.5685 382 30C382 13.4315 395.431 0 412 0C428.569 0 442 13.4315 442 30C442 46.5685 428.569 60 412 60ZM350 60C333.431 60 320 46.5685 320 30C320 13.4315 333.431 0 350 0C366.569 0 380 13.4315 380 30C380 46.5685 366.569 60 350 60ZM320 92C320 108.569 333.431 122 350 122C366.569 122 380 108.569 380 92C380 75.4315 366.569 62 350 62C333.431 62 320 75.4315 320 92ZM412 122C395.431 122 382 108.569 382 92C382 75.4315 395.431 62 412 62C428.569 62 442 75.4315 442 92C442 108.569 428.569 122 412 122ZM258 30C258 46.5685 271.431 60 288 60C304.569 60 318 46.5685 318 30C318 13.4315 304.569 0 288 0C271.431 0 258 13.4315 258 30ZM226 60C209.431 60 196 46.5685 196 30C196 13.4315 209.431 0 226 0C242.569 0 256 13.4315 256 30C256 46.5685 242.569 60 226 60ZM258 92C258 108.569 271.431 122 288 122C304.569 122 318 108.569 318 92C318 75.4315 304.569 62 288 62C271.431 62 258 75.4315 258 92ZM226 122C209.431 122 196 108.569 196 92C196 75.4315 209.431 62 226 62C242.569 62 256 75.4315 256 92C256 108.569 242.569 122 226 122Z" fill="#236967"/>
</svg>
